src/icons/edit-split.svg

<?xml version="1.0" encoding="UTF-8"?>
<svg id="export" xmlns="http://www.w3.org/2000/svg" width="24" height="24" viewBox="0 0 24 24">
  <defs>
    <style>
      .cls-1 {
        fill: #bb2649;
      }
    </style>
  </defs>
  <g id="path-split-edit">
    <path class="cls-1" d="m21.5,4.75h-13c-.28,0-.5-.22-.5-.5s.22-.5.5-.5h13c.28,0,.5.22.5.5s-.22.5-.5.5Z"/>
    <path class="cls-1" d="m23.5,2H.5c-.28,0-.5.22-.5.5v19c0,.28.22.5.5.5h23c.28,0,.5-.22.5-.5V2.5c0-.28-.22-.5-.5-.5Zm-.5,1v2.5H1v-2.5h22ZM1,21V6.5h22v14.5H1Z"/>
    <circle class="cls-1" cx="2.5" cy="4.25" r=".5"/>
    <circle class="cls-1" cx="4.5" cy="4.25" r=".5"/>
    <circle class="cls-1" cx="6.5" cy="4.25" r=".5"/>
    <path class="cls-1" d="m21.75,20h-8.5c-.28,0-.5-.22-.5-.5v-11.5c0-.28.22-.5.5-.5h8.5c.28,0,.5.22.5.5v11.5c0,.28-.22.5-.5.5Z"/>
    <path class="cls-1" d="m11,7.5H2.5c-.28,0-.5.22-.5.5v11.5c0,.28.22.5.5.5h8.5c.28,0,.5-.22.5-.5v-11.5c0-.28-.22-.5-.5-.5Zm-5.28,5.43l-1.21.55,1.21.49v.58l-1.98-.88v-.34l1.98-.99v.58Zm.84,2.01h-.68l1.07-2.94h.68l-1.07,2.94Zm3.19-1.26l-1.98.88v-.58l1.21-.49-1.21-.55v-.58l1.98.99v.34Z"/>
  </g>
</svg>

<svg id="export" xmlns="http://www.w3.org/2000/svg" width="24" height="24" viewBox="0 0 24 24"><defs><style>.cls-1{fill:#3c5583;}</style></defs><g id="path-split-edit"><path class="cls-1" d="M21.5,4.75H8.5a.5.5,0,0,1,0-1h13a.5.5,0,0,1,0,1Z"/><path class="cls-1" d="M23.5,2H.5a.5.5,0,0,0-.5.5v19a.5.5,0,0,0,.5.5h23a.5.5,0,0,0,.5-.5V2.5A.5.5,0,0,0,23.5,2ZM23,3V5.5H1V3ZM1,21V6.5H23V21Z"/><circle class="cls-1" cx="2.5" cy="4.25" r="0.5"/><circle class="cls-1" cx="4.5" cy="4.25" r="0.5"/><circle class="cls-1" cx="6.5" cy="4.25" r="0.5"/><path class="cls-1" d="M21.75,20h-8.5a.5.5,0,0,1-.5-.5V8a.5.5,0,0,1,.5-.5h8.5a.5.5,0,0,1,.5.5V19.5A.5.5,0,0,1,21.75,20Z"/><path class="cls-1" d="M11,7.5H2.5A.5.5,0,0,0,2,8V19.5a.5.5,0,0,0,.5.5H11a.5.5,0,0,0,.5-.5V8A.5.5,0,0,0,11,7.5ZM5.72,12.93l-1.21.55,1.21.5v.57l-2-.88v-.33l2-1Zm.84,2H5.89L7,12h.68Zm3.19-1.27-2,.88V14L9,13.48l-1.21-.55v-.58l2,1Z"/></g></svg>
